packages/icons/svgs/duotone/Source=code.svg

<svg width="24" height="24" viewBox="0 0 24 24" fill="none" xmlns="http://www.w3.org/2000/svg">
<path fill-rule="evenodd" clip-rule="evenodd" d="M7.74372 6.27197C8.08543 6.6346 8.08543 7.22254 7.74372 7.58517L3.11244 12.5L7.74372 17.4148C8.08543 17.7775 8.08543 18.3654 7.74372 18.728C7.40201 19.0907 6.84799 19.0907 6.50628 18.728L1.25628 13.1566C0.914573 12.794 0.914573 12.206 1.25628 11.8434L6.50628 6.27197C6.84799 5.90934 7.40201 5.90934 7.74372 6.27197Z" fill="black" style="fill:black;fill-opacity:1;"/>
<path fill-rule="evenodd" clip-rule="evenodd" d="M16.2563 6.27197C16.598 5.90934 17.152 5.90934 17.4937 6.27197L22.7437 11.8434C23.0854 12.206 23.0854 12.794 22.7437 13.1566L17.4937 18.728C17.152 19.0907 16.598 19.0907 16.2563 18.728C15.9146 18.3654 15.9146 17.7775 16.2563 17.4148L20.8876 12.5L16.2563 7.58517C15.9146 7.22254 15.9146 6.6346 16.2563 6.27197Z" fill="black" style="fill:black;fill-opacity:1;"/>
<path opacity="0.5" fill-rule="evenodd" clip-rule="evenodd" d="M13.7648 3.28643C14.1494 3.34914 14.3985 3.70957 14.3214 4.09147L10.7646 21.694C10.6875 22.0759 10.3132 22.3347 9.92865 22.272C9.54411 22.2092 9.29493 21.8488 9.3721 21.4669L12.9288 3.86437C13.006 3.48246 13.3803 3.22371 13.7648 3.28643Z" fill="black" style="fill:black;fill-opacity:1;"/>
</svg>

<svg xmlns="http://www.w3.org/2000/svg" width="24" height="24" viewBox="0 0 24 24"><path fill-rule="evenodd" d="M7.744 6.272a.97.97 0 0 1 0 1.313L3.112 12.5l4.632 4.915a.97.97 0 0 1 0 1.313.84.84 0 0 1-1.238 0l-5.25-5.571a.97.97 0 0 1 0-1.314l5.25-5.571a.84.84 0 0 1 1.238 0m8.512 0a.84.84 0 0 1 1.238 0l5.25 5.571a.97.97 0 0 1 0 1.314l-5.25 5.571a.84.84 0 0 1-1.238 0 .97.97 0 0 1 0-1.313l4.632-4.915-4.632-4.915a.97.97 0 0 1 0-1.313" clip-rule="evenodd"/><path fill-rule="evenodd" d="M13.765 3.286a.674.674 0 0 1 .556.805l-3.556 17.603a.74.74 0 0 1-.836.578.674.674 0 0 1-.557-.805L12.93 3.864a.74.74 0 0 1 .836-.578" clip-rule="evenodd" opacity=".55"/></svg>
